src/images/Ginetta_Logo_Word.svg

<svg width="300" height="102" viewBox="0 0 300 102" fill="none" xmlns="http://www.w3.org/2000/svg">
<path d="M21.6 72.4992C29 72.4992 34.7 66.8992 34.7 58.8992C34.7 50.7992 29 45.2992 21.6 45.2992C14.2 45.2992 8.5 51.0992 8.5 58.8992C8.5 66.6992 14.2 72.4992 21.6 72.4992ZM34.6 38.2992H42.8V79.1992C42.8 92.7992 34.6 101.199 21.7 101.199C12 101.199 4.4 95.5992 1.4 87.1992L9.1 83.9992C10.8 89.2992 15.2 93.0992 21.5 93.0992C30 93.0992 34.6 87.7992 34.6 78.2992V74.7992C31.4 78.5992 27.3 80.7992 21.4 80.7992C9.4 80.7992 0 71.1992 0 59.0992C0 46.6992 9.3 37.1992 21.4 37.1992C26.9 37.1992 31.4 39.5992 34.6 43.1992V38.2992ZM56 32.4992C53 32.4992 50.6 30.0992 50.6 27.0992C50.6 24.0992 53 21.6992 56 21.6992C59 21.6992 61.4 24.0992 61.4 27.0992C61.4 30.0992 59 32.4992 56 32.4992ZM51.9 38.2992H60.1V79.4992H51.9V38.2992ZM77.4 42.8992C80.7 39.3992 85.1 36.9992 91 36.9992C102 36.9992 109.6 45.3992 109.6 58.4992V79.3992H101.4V59.3992C101.4 50.4992 97.3 44.9992 89.5 44.9992C82.7 44.9992 77.5 49.9992 77.5 58.6992V79.3992H69.3V38.1992H77.5V42.8992H77.4ZM124.7 55.1992H149.7C148.5 49.0992 143.1 45.1992 137.2 45.1992C131.3 45.1992 125.9 49.4992 124.7 55.1992ZM158.6 58.8992C158.6 60.1992 158.5 61.1992 158.5 61.7992H124.5C125.4 67.9992 130.9 72.6992 137.2 72.6992C142.8 72.6992 146.8 70.2992 149.1 66.7992L156.6 70.5992C152.8 76.8992 145.7 80.7992 137.2 80.7992C124.9 80.7992 115.8 71.0992 115.8 58.9992C115.8 46.8992 125 37.1992 137.2 37.1992C149.4 37.1992 158.6 46.7992 158.6 58.8992ZM210 49.7992H197.6V61.7992C197.6 68.4992 201.6 72.4992 207.2 72.4992H207.5V80.6992H207C197.4 80.6992 189.4 73.5992 189.4 62.0992V49.7992H172.9V61.7992C172.9 68.4992 176.9 72.4992 182.5 72.4992H182.8V80.6992H182.3C172.7 80.6992 164.7 73.5992 164.7 62.0992V32.5992L172.9 29.5992V42.3992H189.5V32.5992L197.7 29.5992V42.3992H210.1V49.7992H210ZM235.6 45.2992C228.2 45.2992 222.4 51.0992 222.4 58.8992C222.4 66.6992 228.2 72.4992 235.6 72.4992C243 72.4992 248.8 66.8992 248.8 58.8992C248.8 50.7992 243 45.2992 235.6 45.2992ZM248.8 74.6992C245.5 78.4992 241.4 80.6992 235.5 80.6992C223.4 80.6992 214 71.0992 214 58.9992C214 46.5992 223.3 37.0992 235.5 37.0992C241.1 37.0992 245.6 39.4992 248.8 43.0992V38.3992H257V79.5992H248.8V74.6992Z" fill="white"/>
<path d="M284.5 30.6992C276.2 30.6992 269.5 23.9992 269.5 15.6992C269.5 7.39922 276.2 0.699219 284.5 0.699219C292.8 0.699219 299.5 7.39922 299.5 15.6992C299.5 23.9992 292.8 30.6992 284.5 30.6992ZM284.5 53.2992C276.2 53.2992 269.5 46.5992 269.5 38.2992H299.5C299.5 46.5992 292.8 53.2992 284.5 53.2992Z" fill="white"/>
</svg>

<svg fill="none" height="102" viewBox="0 0 300 102" width="300" xmlns="http://www.w3.org/2000/svg"><g fill="#fff"><path d="m21.6 72.4992c7.4 0 13.1-5.6 13.1-13.6 0-8.1-5.7-13.6-13.1-13.6s-13.1 5.8-13.1 13.6 5.7 13.6 13.1 13.6zm13-34.2h8.2v40.9c0 13.6-8.2 21.9998-21.1 21.9998-9.7 0-17.3-5.5998-20.3-13.9998l7.7-3.2c1.7 5.3 6.1 9.1 12.4 9.1 8.5 0 13.1-5.3 13.1-14.8v-3.5c-3.2 3.8-7.3 6-13.2 6-12 0-21.4-9.6-21.4-21.7 0-12.4 9.3-21.9 21.4-21.9 5.5 0 10 2.4 13.2 6zm21.4-5.8c-3 0-5.4-2.4-5.4-5.4s2.4-5.4 5.4-5.4 5.4 2.4 5.4 5.4-2.4 5.4-5.4 5.4zm-4.1 5.8h8.2v41.2h-8.2zm25.5 4.6c3.3-3.5 7.7-5.9 13.6-5.9 11 0 18.6 8.4 18.6 21.5v20.9h-8.2v-20c0-8.9-4.1-14.4-11.9-14.4-6.8 0-12 5-12 13.7v20.7h-8.2v-41.2h8.2v4.7zm47.3 12.3h25c-1.2-6.1-6.6-10-12.5-10s-11.3 4.3-12.5 10zm33.9 3.7c0 1.3-.1 2.3-.1 2.9h-34c.9 6.2 6.4 10.9 12.7 10.9 5.6 0 9.6-2.4 11.9-5.9l7.5 3.8c-3.8 6.3-10.9 10.2-19.4 10.2-12.3 0-21.4-9.7-21.4-21.8s9.2-21.8 21.4-21.8 21.4 9.6 21.4 21.7zm51.4-9.1h-12.4v12c0 6.7 4 10.7 9.6 10.7h.3v8.2h-.5c-9.6 0-17.6-7.1-17.6-18.6v-12.3h-16.5v12c0 6.7 4 10.7 9.6 10.7h.3v8.2h-.5c-9.6 0-17.6-7.1-17.6-18.6v-29.5l8.2-3v12.8h16.6v-9.8l8.2-3v12.8h12.4v7.4zm25.6-4.5c-7.4 0-13.2 5.8-13.2 13.6s5.8 13.6 13.2 13.6 13.2-5.6 13.2-13.6c0-8.1-5.8-13.6-13.2-13.6zm13.2 29.4c-3.3 3.8-7.4 6-13.3 6-12.1 0-21.5-9.6-21.5-21.7 0-12.4 9.3-21.9 21.5-21.9 5.6 0 10.1 2.4 13.3 6v-4.7h8.2v41.2h-8.2z"/><path d="m284.5 30.6992c-8.3 0-15-6.7-15-15 0-8.29998 6.7-14.999981 15-14.999981s15 6.700001 15 14.999981c0 8.3-6.7 15-15 15zm0 22.6c-8.3 0-15-6.7-15-15h30c0 8.3-6.7 15-15 15z"/></g></svg>
